X:890
T:Lord Bernard's March
B:Aird's Airs and Melodies vol 3
M:C
Z:Richard Robinson 
%%TUNEURL: http://www.leeds.ac.uk/music/Info/RRTuneBk/gettune/00000242.html
%%ID:00000242
K:C
g/f/e/d/|\
c2c>c c2f/e/d/c/| d2d>d d2e>f| g>eg>e gfed| c2c>c c2(g/f/e/d/)|
c2c>c c2(f/e/d/c/)| Bcde ^fgac'| bg ^f/e/d/c/ B2"tr"A2| G2G>G G2::
G/A/B/c/| \
dBfd ecge| dBfd ecge|a3g fedc| d2d>d d2g>f|
e2g>e d2g>f| e/g/e/g/ f/e/d/c/ d2e>f| gecG AdcB| cdef gabc'|\
gecG AdcB| c2c>c c2:|
